Papirus/48x48/apps/kwordquiz.svg

<svg width="48" height="48" version="1" xmlns="http://www.w3.org/2000/svg">
 <g>
  <g>
   <rect x="4" y="7.9760766" width="24" height="36" rx="2" ry="2" style="opacity:.2"/>
   <rect x="4" y="7" width="24" height="36" rx="2" ry="2" style="fill:#f57f17"/>
   <path d="m6 7c-0.1385 0-0.273867 0.01446-0.404297 0.04102-0.130429 0.02655-0.255281 0.06477-0.375 0.115234-0.119718 0.05047-0.233476 0.111852-0.339844 0.183594-0.106367 0.07174-0.2065 0.153765-0.296875 0.24414-0.09037 0.09037-0.172398 0.190508-0.24414 0.296875-0.07174 0.106367-0.133125 0.220125-0.183594 0.339844-0.05047 0.119719-0.08868 0.244571-0.115234 0.375-0.02656 0.13043-0.04102 0.265797-0.04102 0.404297v1c0-0.1384996 0.01446-0.273867 0.04102-0.404297 0.02655-0.130429 0.06476-0.255281 0.115234-0.375 0.05047-0.119719 0.111852-0.233477 0.183594-0.339844 0.07174-0.106367 0.153766-0.2065 0.24414-0.296875 0.09037-0.09038 0.190508-0.172398 0.296875-0.24414 0.106368-0.07174 0.220126-0.133125 0.339844-0.183594 0.119719-0.05047 0.244571-0.08868 0.375-0.115234 0.13043-0.02656 0.265797-0.04102 0.404297-0.04102h20c0.1385 0 0.273867 0.01446 0.404297 0.04102 0.13043 0.02655 0.255281 0.06477 0.375 0.115234 0.119719 0.05047 0.233477 0.111852 0.339844 0.183594 0.106367 0.07174 0.2065 0.153765 0.296875 0.24414 0.09037 0.09037 0.170445 0.190508 0.242187 0.296875 0.07174 0.106367 0.135078 0.220125 0.185547 0.339844 0.05047 0.119719 0.08868 0.244571 0.115234 0.375 0.02656 0.13043 0.04102 0.2657974 0.04102 0.404297v-1c0-0.1385-0.01446-0.273867-0.04102-0.404297-0.02655-0.130429-0.06476-0.255281-0.115234-0.375-0.05047-0.119719-0.113805-0.233477-0.185547-0.339844-0.07174-0.106367-0.151812-0.2065-0.242187-0.296875-0.09037-0.09038-0.190508-0.172398-0.296875-0.24414-0.106367-0.07174-0.220125-0.133125-0.339844-0.183594-0.119719-0.05047-0.24457-0.08868-0.375-0.115234-0.13043-0.02656-0.265797-0.04102-0.404297-0.04102z" style="fill:#ffffff;opacity:.2"/>
  </g>
  <g>
   <rect x="20" y="5" width="24" height="36" rx="2" ry="2" style="opacity:.2"/>
   <rect x="20" y="4" width="24" height="36" rx="2" ry="2" style="fill:#00b0ff"/>
   <path d="m22 4c-0.1385 0-0.273867 0.01446-0.404297 0.04102-0.130429 0.02655-0.255281 0.06477-0.375 0.115234-0.119718 0.05047-0.233476 0.111852-0.339844 0.183594-0.106367 0.07174-0.2065 0.153765-0.296875 0.24414-0.09037 0.09037-0.172398 0.190508-0.24414 0.296875-0.07174 0.106367-0.133125 0.220125-0.183594 0.339844-0.05047 0.119719-0.08868 0.244571-0.115234 0.375-0.02656 0.13043-0.04102 0.265797-0.04102 0.404297v1c0-0.1385 0.01446-0.273867 0.04102-0.404297 0.02655-0.130429 0.06476-0.255281 0.115234-0.375 0.05047-0.119719 0.111852-0.233477 0.183594-0.339844 0.07174-0.106367 0.153766-0.2065 0.24414-0.296875 0.09037-0.09038 0.190508-0.172398 0.296875-0.24414 0.106368-0.07174 0.220126-0.133125 0.339844-0.183594 0.119719-0.05047 0.244571-0.08868 0.375-0.115234 0.13043-0.02656 0.265797-0.04102 0.404297-0.04102h20c0.1385 0 0.273867 0.01446 0.404297 0.04102 0.13043 0.02655 0.255281 0.06477 0.375 0.115234 0.119719 0.05047 0.233477 0.111852 0.339844 0.183594 0.106367 0.07174 0.2065 0.153765 0.296875 0.24414 0.09037 0.09037 0.170445 0.190508 0.242187 0.296875 0.07174 0.106367 0.135078 0.220125 0.185547 0.339844 0.05047 0.119719 0.08868 0.244571 0.115234 0.375 0.02656 0.13043 0.04102 0.265797 0.04102 0.404297v-1c0-0.1385-0.01446-0.273867-0.04102-0.404297-0.02655-0.130429-0.06476-0.255281-0.115234-0.375-0.05047-0.119719-0.113805-0.233477-0.185547-0.339844-0.07174-0.106367-0.151812-0.2065-0.242187-0.296875-0.09037-0.09038-0.190508-0.172398-0.296875-0.24414-0.106367-0.07174-0.220125-0.133125-0.339844-0.183594-0.119719-0.05047-0.24457-0.08868-0.375-0.115234-0.13043-0.02656-0.265797-0.04102-0.404297-0.04102z" style="fill:#ffffff;opacity:.2"/>
  </g>
  <g>
   <path d="m33 34h-3v-3h3zm3.157895-12.631579-1.052632 1.052631c-0.92592 0.93878-2.105263 2.113949-2.105263 3.578948v2h-3c-0.0016-1.767008 0.196561-4.924138 1.83158-6.463969l2.221052-2.272873c0.629149-0.612147 1.052631-1.17004 1.052631-2.105264 0-1.870445-1.234816-3.157894-3.105263-3.157894-1.870445 0-3 1.129555-3 3h-3c0-3.757894 2.242105-6 6-6 3.757894 0 6 2.242106 6 6 0 1.496357-0.872876 3.39919-1.842105 4.368421z" style="opacity:.2"/>
   <path d="m33 33h-3v-3h3zm3.157895-12.631579-1.052632 1.052631c-0.92592 0.93878-2.105263 2.113949-2.105263 3.578948v2h-3c-0.0016-1.767008 0.196561-4.924138 1.83158-6.463969l2.221052-2.272873c0.629149-0.612147 1.052631-1.17004 1.052631-2.105264 0-1.870445-1.234816-3.157894-3.105263-3.157894-1.870445 0-3 1.129555-3 3h-3c0-3.757894 2.242105-6 6-6 3.757894 0 6 2.242106 6 6 0 1.496357-0.872876 3.39919-1.842105 4.368421z" fill="#ffffff"/>
  </g>
 </g>
</svg>

<svg xmlns="http://www.w3.org/2000/svg" width="48" height="48" version="1">
 <rect style="opacity:0.2" width="24" height="36" x="4" y="8" rx="2" ry="2"/>
 <rect style="fill:#f57f17" width="24" height="36" x="4" y="7" rx="2" ry="2"/>
 <path style="fill:#ffffff;opacity:0.2" d="M 6 7 C 4.892 7 4 7.892 4 9 L 4 10 C 4 8.892 4.892 8 6 8 L 26 8 C 27.108 8 28 8.892 28 10 L 28 9 C 28 7.892 27.108 7 26 7 L 6 7 z"/>
 <rect style="opacity:0.2" width="24" height="36" x="20" y="5" rx="2" ry="2"/>
 <rect style="fill:#00b0ff" width="24" height="36" x="20" y="4" rx="2" ry="2"/>
 <path style="opacity:0.2" d="M 33,34 H 30 V 31 H 33 Z M 36.158,21.368 35.105,22.421 C 34.179,23.36 33,24.535 33,26 V 28 H 30 C 29.998,26.233 30.197,23.076 31.832,21.536 L 34.053,19.263 C 34.682,18.651 35.105,18.093 35.105,17.158 35.105,15.287 33.87,14 32,14 30.13,14 29,15.13 29,17 H 26 C 26,13.242 28.242,11 32,11 35.758,11 38,13.242 38,17 38,18.496 37.127,20.399 36.158,21.368 Z"/>
 <path fill="#ffffff" d="M 33,33 H 30 V 30 H 33 Z M 36.158,20.368 35.105,21.421 C 34.179,22.36 33,23.535 33,25 V 27 H 30 C 29.998,25.233 30.197,22.076 31.832,20.536 L 34.053,18.263 C 34.682,17.651 35.105,17.093 35.105,16.158 35.105,14.287 33.87,13 32,13 30.13,13 29,14.13 29,16 H 26 C 26,12.242 28.242,10 32,10 35.758,10 38,12.242 38,16 38,17.496 37.127,19.399 36.158,20.368 Z"/>
 <path style="fill:#ffffff;opacity:0.2" d="M 22 4 C 20.892 4 20 4.892 20 6 L 20 7 C 20 5.892 20.892 5 22 5 L 42 5 C 43.108 5 44 5.892 44 7 L 44 6 C 44 4.892 43.108 4 42 4 L 22 4 z"/>
</svg>
